client/static/images/footer/ig.svg

<svg viewBox="0 0 35.38 35.38" xmlns="http://www.w3.org/2000/svg"><g fill="#ccc"><path d="m27.06 6.32a2.08 2.08 0 1 0 2.07 2.07 2.08 2.08 0 0 0 -2.07-2.07z"/><path d="m17.84 23.27a5.58 5.58 0 1 1 5.58-5.58 5.59 5.59 0 0 1 -5.58 5.58z"/><path d="m24.75 35.38h-14.12a10.64 10.64 0 0 1 -10.63-10.63v-14.12a10.64 10.64 0 0 1 10.63-10.63h14.12a10.64 10.64 0 0 1 10.63 10.63v14.12a10.64 10.64 0 0 1 -10.63 10.63zm-14.12-32.05a7.3 7.3 0 0 0 -7.3 7.3v14.12a7.3 7.3 0 0 0 7.3 7.3h14.12a7.3 7.3 0 0 0 7.3-7.3v-14.12a7.3 7.3 0 0 0 -7.3-7.3z"/></g></svg>

<svg xmlns="http://www.w3.org/2000/svg" viewBox="0 0 35.38 35.38"><defs><style>.cls-1{fill:#ccc;}</style></defs><g id="圖層_2" data-name="圖層 2"><g id="圖層_1-2" data-name="圖層 1"><path class="cls-1" d="M27.06,6.32a2.08,2.08,0,1,0,2.07,2.07A2.08,2.08,0,0,0,27.06,6.32Z"/><path class="cls-1" d="M17.84,23.27a5.58,5.58,0,1,1,5.58-5.58A5.59,5.59,0,0,1,17.84,23.27Z"/><path class="cls-1" d="M24.75,35.38H10.63A10.64,10.64,0,0,1,0,24.75V10.63A10.64,10.64,0,0,1,10.63,0H24.75A10.64,10.64,0,0,1,35.38,10.63V24.75A10.64,10.64,0,0,1,24.75,35.38ZM10.63,3.33a7.3,7.3,0,0,0-7.3,7.3V24.75a7.3,7.3,0,0,0,7.3,7.3H24.75a7.3,7.3,0,0,0,7.3-7.3V10.63a7.3,7.3,0,0,0-7.3-7.3Z"/></g></g></svg>
